Catalina-light/actions/16/snap-bounding-box-edges.svg

<svg width="16" height="16" viewBox="0 0 16 16" xmlns="http://www.w3.org/2000/svg">
<defs>
<style id="current-color-scheme" type="text/css">.ColorScheme-Text { color:#5c616c; } .ColorScheme-Highlight { color:#5294e2; }</style>
</defs>
<path class="ColorScheme-Text" d="m14 1.5v0.5 1 0.5h1v-0.5-1-0.5h-1zm0 3v0.5 1 0.5h1v-0.5-1-0.5h-1zm0 3v0.5 1 0.5h1v-0.5-1-0.5h-1zm0 3v0.5 1 0.5h1v-0.5-1-0.5h-1zm0 3v0.5h-0.5v1h0.5 0.5 0.5v-0.5-0.5-0.5h-1zm-12.5 0.5v1h0.5 1 0.5v-1h-0.5-1-0.5zm3 0v1h0.5 1 0.5v-1h-0.5-1-0.5zm3 0v1h0.5 1 0.5v-1h-0.5-1-0.5zm3 0v1h0.5 1 0.5v-1h-0.5-1-0.5z" fill="#363636"/>
</svg>

<svg xmlns="http://www.w3.org/2000/svg" width="16" height="16" viewBox="0 0 16 16">
 <defs>
  <style id="current-color-scheme" type="text/css">
   .ColorScheme-Text { color:#5c616c; } .ColorScheme-Highlight { color:#5294e2; }
  </style>
 </defs>
 <path style="fill:currentColor" class="ColorScheme-Text" d="M 14 1.5 L 14 2 L 14 3 L 14 3.5 L 15 3.5 L 15 3 L 15 2 L 15 1.5 L 14 1.5 z M 14 4.5 L 14 5 L 14 6 L 14 6.5 L 15 6.5 L 15 6 L 15 5 L 15 4.5 L 14 4.5 z M 14 7.5 L 14 8 L 14 9 L 14 9.5 L 15 9.5 L 15 9 L 15 8 L 15 7.5 L 14 7.5 z M 14 10.5 L 14 11 L 14 12 L 14 12.5 L 15 12.5 L 15 12 L 15 11 L 15 10.5 L 14 10.5 z M 14 13.5 L 14 14 L 13.5 14 L 13.5 15 L 14 15 L 14.5 15 L 15 15 L 15 14.5 L 15 14 L 15 13.5 L 14 13.5 z M 1.5 14 L 1.5 15 L 2 15 L 3 15 L 3.5 15 L 3.5 14 L 3 14 L 2 14 L 1.5 14 z M 4.5 14 L 4.5 15 L 5 15 L 6 15 L 6.5 15 L 6.5 14 L 6 14 L 5 14 L 4.5 14 z M 7.5 14 L 7.5 15 L 8 15 L 9 15 L 9.5 15 L 9.5 14 L 9 14 L 8 14 L 7.5 14 z M 10.5 14 L 10.5 15 L 11 15 L 12 15 L 12.5 15 L 12.5 14 L 12 14 L 11 14 L 10.5 14 z"/>
</svg>
